StripePaymentSheet/StripePaymentSheet/Resources/StripePaymentSheet.xcassets/PaymentMethods/icon-pm-ideal.imageset/icon-pm-ideal-mod.svg

<svg fill="none" height="16" viewBox="0 0 18 16" width="18" xmlns="http://www.w3.org/2000/svg" xmlns:xlink="http://www.w3.org/1999/xlink"><clipPath id="a"><path d="m0 0h18v16h-18z"/></clipPath><g clip-path="url(#a)"><path clip-rule="evenodd" d="m0 2.75c0-1.51879 1.23122-2.75 2.75-2.75h7.25c4.4183 0 8 3.58173 8 8 0 4.4183-3.5817 8-8 8h-7.25c-1.51878 0-2.75-1.2312-2.75-2.75z" fill="#fff" fill-rule="evenodd"/><g fill="#000"><path d="m4.43316 7.51624c.61475 0 1.1131-.49835 1.1131-1.1131s-.49835-1.1131-1.1131-1.1131c-.61474 0-1.11309.49835-1.11309 1.1131s.49835 1.1131 1.11309 1.1131z"/><path d="m5.27266 12.0043c-.93452 0-1.68453-.756-1.68453-1.6845v-1.3155c0-.46429.37501-.84524.84525-.84524.46428 0 .84524.375.84524.84524v3z"/><path clip-rule="evenodd" d="m1 2.75c0-.9665.7835-1.75 1.75-1.75h7.25c3.866 0 7 3.13401 7 7 0 3.866-3.134 7-7 7h-7.25c-.9665 0-1.75-.7835-1.75-1.75zm1.75-.75c-.41421 0-.75.33579-.75.75v10.5c0 .4142.33579.75.75.75h7.25c3.3137 0 6-2.6863 6-6 0-3.31371-2.6863-6-6-6z" fill-rule="evenodd"/></g><path d="m6.55005 4.56079v7.43921h3.23768c2.93977 0 4.21467-1.6605 4.21467-4.00876 0-2.24754-1.2749-3.99124-4.21467-3.99124h-2.67689c-.31107 0-.56079.25411-.56079.56079z" fill="#e60073"/></g></svg>

<svg width="18" height="16" viewBox="0 0 18 16" fill="none" xmlns="http://www.w3.org/2000/svg">
<g clip-path="url(#clip0_788_23085)">
<path fill-rule="evenodd" clip-rule="evenodd" d="M0 2.75C0 1.23121 1.23122 0 2.75 0H10C14.4183 0 18 3.58173 18 8C18 12.4183 14.4183 16 10 16H2.75C1.23122 16 0 14.7688 0 13.25V2.75Z" fill="white"/>
<path d="M4.43316 7.51624C5.04791 7.51624 5.54626 7.01789 5.54626 6.40314C5.54626 5.78839 5.04791 5.29004 4.43316 5.29004C3.81842 5.29004 3.32007 5.78839 3.32007 6.40314C3.32007 7.01789 3.81842 7.51624 4.43316 7.51624Z" fill="black"/>
<path d="M5.27266 12.0043C4.33814 12.0043 3.58813 11.2483 3.58813 10.3198V9.0043C3.58813 8.54001 3.96314 8.15906 4.43338 8.15906C4.89766 8.15906 5.27862 8.53406 5.27862 9.0043V12.0043H5.27266Z" fill="black"/>
<path fill-rule="evenodd" clip-rule="evenodd" d="M1 2.75C1 1.7835 1.7835 1 2.75 1H10C13.866 1 17 4.13401 17 8C17 11.866 13.866 15 10 15H2.75C1.7835 15 1 14.2165 1 13.25V2.75ZM2.75 2C2.33579 2 2 2.33579 2 2.75V13.25C2 13.6642 2.33579 14 2.75 14H10C13.3137 14 16 11.3137 16 8C16 4.68629 13.3137 2 10 2H2.75Z" fill="black"/>
<path d="M6.55005 4.56079V12H9.78773C12.7275 12 14.0024 10.3395 14.0024 7.99124C14.0024 5.7437 12.7275 4 9.78773 4H7.11084C6.79977 4 6.55005 4.25411 6.55005 4.56079Z" fill="#E60073"/>
</g>
<defs>
<clipPath id="clip0_788_23085">
<rect width="18" height="16" fill="white"/>
</clipPath>
</defs>
</svg>
